X:1
T:Title
%%score { 1 | ( 2 3 ) }
L:1/8
Q:1/4=100
M:3/4
K:F
V:1 treble nm="Grand Piano"
V:2 bass 
V:3 bass 
V:1
 z2 z2 [A,C]>[A,C] | [CF]4 [CA]>[CF] | [B,D]4 [DF]>D | C4 D>E |[M:2/4] [A,F]4 |[M:1/4] [CF]>[CF] | %6
[M:3/4] [DB]4 [DB]>[DB] | [CA]4 [CA]>[CA] | [=B,G]4 [G,B,F]>[B,A] |[M:4/4] G6 F>A |[M:3/4] c4 c>d | %11
 c4 [CA]>[CG] | [DF]4 [DF]>[DF] |[M:4/4] D6 D2 |[M:3/4] C4 [CF]>[CG] | [CA]4 [CF]>F | G4 F>E | %17
[M:2/4] [A,CF]4 |[M:1/4] [F,CF]2 |[M:3/4] [DB]4 [DB]>[DB] | [CA]4 [CA]2 | [=B,G]4 [G,B,F]>[B,A] | %22
 G4 F>A | c4 c>d | c4 [CF]>[DG] | %25
 A4 GG[Q:1/4=98][Q:1/4=97][Q:1/4=95][Q:1/4=94][Q:1/4=92][Q:1/4=91][Q:1/4=89][Q:1/4=88][Q:1/4=86][Q:1/4=84][Q:1/4=83][Q:1/4=81][Q:1/4=80][Q:1/4=78][Q:1/4=77] | %26
 [A,F]4 z2 |] %27
V:2
 z2 z2 [F,,F,]>[F,,F,] | [A,,F,]4 [F,,F,]>[A,,F,] | [B,,F,]4 [B,,F,]>[B,,F,B,] | %3
 [C,F,A,]4 [C,E,B,]>[C,G,B,] |[M:2/4] [F,,F,]4 |[M:1/4] [A,,F,]2 | %6
[M:3/4] [B,,F,]4 [B,,F,]>[B,,F,] | [F,,F,]4 [F,,F,]>[F,,F,] | F,2 D,2 G,,>[G,,F,] | %9
[M:4/4] [C,E,C]6 [A,C]>[K:treble][CF] |[M:3/4] [F,A,F]4 [F,A,F]>[F,B,F] | %11
 [F,A,F]4[K:bass] [F,,F,]>[A,,F,] | [B,,F,]4 [B,,F,]>[B,,F,] |[M:4/4] [B,,F,B,]6 [B,,F,B,]2 | %14
[M:3/4] [A,,F,]4 [A,,F,]>[G,,E,] | [F,,F,]4 [A,,F,]>[C,A,C] | [C,B,C]4 [C,A,C]>[C,G,B,] | %17
[M:2/4] F,,4 |[M:1/4] A,,2 |[M:3/4] [B,,F,]4 [B,,F,]>[B,,F,] | [F,,F,]4 [F,,F,]2 | F,2 z2 z2 | %22
 [C,E,C]4 [F,A,]>[F,CF] | [F,A,F]4 [F,A,F]>[F,B,F] | [F,A,F]4 [A,,F,]>[B,,F,] | %25
 [C,F,C]4 [C,E,C][C,E,B,] | [F,,F,]4 z2 |] %27
V:3
 x6 | x6 | x6 | x6 |[M:2/4] x4 |[M:1/4] x2 |[M:3/4] x6 | x6 | G,,4 z2 | %9
[M:4/4] z4 z2 F,2[K:treble] |[M:3/4] x6 | x4[K:bass] x2 | x6 |[M:4/4] x8 |[M:3/4] x6 | x6 | x6 | %17
[M:2/4] x4 |[M:1/4] x2 |[M:3/4] x6 | x6 | G,,2- [G,,D,]2 G,,>[G,,F,] | x6 | x6 | x6 | x6 | x6 |] %27

